icons/glyphs/glyph-fingerprint.svg

<?xml version="1.0" encoding="UTF-8" standalone="no"?><svg height="16" viewBox="0 0 4.2333332 4.2333332" width="16" xmlns="http://www.w3.org/2000/svg"><sodipodi:namedview/><metadata><rdf:RDF><cc:Work><dc:format>image/svg+xml</dc:format><dc:type/><dc:title/></cc:Work></rdf:RDF></metadata><path d="m2.1075163.00003471c-.4190659-.001914-.7783715.0758637-1.1051191.23946268-.1087756.0544602-.125708.0735626-.1186665.13235877.014381.11999841.076341.13164778.2598491.0492923.3411533-.1530988.5071448-.18574769.9374647-.18621502.4938704-.0004051.6757463.0418981 1.0807772.25163372.0695889.0359854.2898978.20604764.3721257.11471085.0814381-.0814334.0384095-.1488338-.1713056-.26806436-.4135851-.23513814-.7749504-.33090427-1.2551255-.33317894zm-.012779.48501088c-.5529253-.00042064-1.1055071.21803563-1.5107148.65570801-.1567536.1693147-.3395684.4468247-.3395684.5154382 0 .080003.032988.1241433.092803.1241433.046886 0 .094594-.050583.2081225-.2212064.2539075-.3815957.5830704-.63474853 1.0071433-.77467861.328885-.10734396.7140161-.0949168 1.0841241 0 .4778756.15707608.8878396.50700381 1.1124216.94963561.048869.096313.078102.1256647.125969.1256647.082438 0 .1308403-.061348.1083212-.1375314-.0363113-.1228791-.2300238-.4206154-.3766902-.5790313-.4057716-.4382892-.9590066-.65772383-1.5119313-.65814211zm.026167.48166398c-.1178512-.00205-.2374267.0091-.3569121.034079-.5677855.1186853-1.0423562.5785182-1.194271 1.1571496-.080619.3070623-.043559.80862.089456 1.2097889.039753.119888.058944.1448915.115928.1515278.1310127.015227.1438152-.047128.065419-.3182692-.2243268-.77584457-.031199-1.43591147.5251749-1.79581847.5500754-.3558332 1.306601-.2505252 1.7370938.2415926.2697651.3083847.4177324.8300122.300013 1.0576523-.0777646.150385-.2671071.2407671-.4226351.2017329-.1136561-.028525-.2483845-.1682022-.2656302-.2753669-.060862-.3781715-.146766-.5261674-.3642145-.6274107-.1854901-.086367-.3401022-.083982-.5221323.00821-.1696108.085911-.2995606.2593065-.3258763.434806-.00949.063242-.00532.2001003.00943.3039686.091762.6470004.5546657 1.1588327 1.1903154 1.3162843.079941.019793.2106397.033778.2905806.031036l.1454424-.00487c.082155-.041703.086651-.1376836 0-.1849979l-.2056854-.0313342c-.258885-.0394498-.3660915-.073562-.54404-.1737397-.3869735-.2178489-.6642277-.6900988-.6642277-1.1312865 0-.1944262.073614-.307996.245244-.379124.1240132-.051397.1257948-.051397.2498081 0 .1569467.065044.2324955.1738999.2519378.362389.035703.3459234.275754.5735543.6048946.5735543.2641505 0 .4864932-.1714155.5653389-.4357187.0771694-.2586636-.0264272-.6931171-.2440268-1.023574-.2883816-.4379466-.7657377-.69338973-1.2764251-.70226103zm-.017039.50113743c-.1644741.00208-.3336144.03243-.4722315.086413-.213733.1046768-.4173954.3137248-.5227406.5361289-.080161.1692257-.084942.1955804-.084892.482881.0000592.3534651.042834.5412359.1950389.858658.1311514.2735118.3128557.5120597.5148296.6754857.1750666.1416547.1936641.1485292.2665431.095237.07461-.054552.032996-.1482334-.1177536-.2638045-.1634515-.1253086-.339991-.3519744-.4591483-.58968-.195724-.3904367-.2450332-.8729835-.1174494-1.1492387.092596-.2004954.2337891-.3500523.4138112-.4384572.2162894-.106216.5322217-.106216.7485111 0 .2581558.1267738.4232202.3576114.481664.6742687.034884.1890172.087691.2518453.1682628.1999074.0373343-.024066.0454639-.064169.0419894-.2081228-.0084405-.3499365-.2536181-.7012813-.6118924-.8772186-.1202681-.05852-.2800681-.0845384-.4445423-.0824579zm-.00121.9563296c-.019077-.0003894-.040715.00597-.06481.018865-.050592.027084-.054648.046176-.042294.1923005.039078.462342.3870067.8602592.8385759.9587637.200287.043677.2540187.042648.302143-.00548.0961157-.096119.0318325-.1726257-.1676565-.1999088-.4077418-.055757-.7106893-.366805-.7591642-.7792389-.0144586-.1230129-.0495675-.1841442-.1067998-.1853015z" fill="#d0d0d0"/></svg>

<?xml version="1.0" encoding="UTF-8" standalone="no"?>
<!-- Created with Inkscape (http://www.inkscape.org/) -->

<svg
   xmlns:dc="http://purl.org/dc/elements/1.1/"
   xmlns:cc="http://creativecommons.org/ns#"
   xmlns:rdf="http://www.w3.org/1999/02/22-rdf-syntax-ns#"
   xmlns:svg="http://www.w3.org/2000/svg"
   xmlns="http://www.w3.org/2000/svg"
   xmlns:sodipodi="http://sodipodi.sourceforge.net/DTD/sodipodi-0.dtd"
   xmlns:inkscape="http://www.inkscape.org/namespaces/inkscape"
   width="16"
   height="16"
   viewBox="0 0 4.2333332 4.2333332"
   version="1.1"
   id="svg8"
   inkscape:version="0.92+devel (4546dc857e, 2017-07-25, custom)"
   sodipodi:docname="glyph-fingerprint.svg">
  <defs
     id="defs2" />
  <sodipodi:namedview
     id="base"
     pagecolor="#002466"
     bordercolor="#ffffff"
     borderopacity="0.38039216"
     inkscape:pageopacity="1"
     inkscape:pageshadow="2"
     inkscape:zoom="36.415999"
     inkscape:cx="10.094581"
     inkscape:cy="7.9162778"
     inkscape:document-units="px"
     inkscape:current-layer="svg8"
     inkscape:document-rotation="0"
     showgrid="false"
     inkscape:showpageshadow="false"
     borderlayer="true"
     inkscape:window-width="1920"
     inkscape:window-height="1051"
     inkscape:window-x="0"
     inkscape:window-y="0"
     inkscape:window-maximized="1"
     units="px" />
  <metadata
     id="metadata5">
    <rdf:RDF>
      <cc:Work
         rdf:about="">
        <dc:format>image/svg+xml</dc:format>
        <dc:type
           rdf:resource="http://purl.org/dc/dcmitype/StillImage" />
        <dc:title></dc:title>
      </cc:Work>
    </rdf:RDF>
  </metadata>
  <path
     style="display:inline;opacity:1;fill:#d0d0d0;fill-opacity:1;fill-rule:nonzero;stroke:none;stroke-width:11.25405121;stroke-miterlimit:4;stroke-dasharray:none;stroke-opacity:1"
     d="M 2.1075163,3.4712011e-5 C 1.6884504,-0.00187929 1.3291448,0.07589841 1.0023972,0.23949739 0.8936216,0.29395759 0.8766892,0.31305999 0.8837307,0.37185616 0.8981117,0.49185457 0.9600717,0.50350394 1.1435798,0.42114846 1.4847331,0.26804966 1.6507246,0.23540077 2.0810445,0.23493344 2.5749149,0.23452834 2.7567908,0.27683154 3.1618217,0.48656716 3.2314106,0.52255256 3.4517195,0.6926148 3.5339474,0.60127801 3.6153855,0.51984461 3.5723569,0.45244421 3.3626418,0.33321365 2.9490567,0.09807551 2.5876914,0.00230938 2.1075163,3.4712011e-5 Z M 2.0947373,0.48504559 C 1.541812,0.48462495 0.9892302,0.70308122 0.5840225,1.1407536 0.4272689,1.3100683 0.2444541,1.5875783 0.2444541,1.6561918 c 0,0.080003 0.032988,0.1241433 0.092803,0.1241433 0.046886,0 0.094594,-0.050583 0.2081225,-0.2212064 C 0.7992871,1.177533 1.12845,0.92438017 1.5525229,0.78445009 c 0.328885,-0.10734396 0.7140161,-0.0949168 1.0841241,0 0.4778756,0.15707608 0.8878396,0.50700381 1.1124216,0.94963561 0.048869,0.096313 0.078102,0.1256647 0.125969,0.1256647 0.082438,0 0.1308403,-0.061348 0.1083212,-0.1375314 C 3.9470475,1.5993399 3.753335,1.3016036 3.6066686,1.1431877 3.200897,0.7048985 2.647662,0.48546387 2.0947373,0.48504559 Z m 0.026167,0.48166398 c -0.1178512,-0.00205 -0.2374267,0.0091 -0.3569121,0.034079 -0.5677855,0.1186853 -1.0423562,0.5785182 -1.194271,1.1571496 -0.080619,0.3070623 -0.043559,0.80862 0.089456,1.2097889 0.039753,0.119888 0.058944,0.1448915 0.115928,0.1515278 0.1310127,0.015227 0.1438152,-0.047128 0.065419,-0.3182692 C 0.6161974,2.4251411 0.8093252,1.7650742 1.3656991,1.4051672 1.9157745,1.049334 2.6723001,1.154642 3.1027929,1.6467598 3.372558,1.9551445 3.5205253,2.476772 3.4028059,2.7044121 3.3250413,2.8547971 3.1356988,2.9451792 2.9801708,2.906145 2.8665147,2.87762 2.7317863,2.7379428 2.7145406,2.6307781 2.6536786,2.2526066 2.5677746,2.1046107 2.3503261,2.0033674 2.164836,1.9170004 2.0102239,1.9193854 1.8281938,2.0115774 1.658583,2.0974884 1.5286332,2.2708839 1.5023175,2.4463834 c -0.00949,0.063242 -0.00532,0.2001003 0.00943,0.3039686 0.091762,0.6470004 0.5546657,1.1588327 1.1903154,1.3162843 0.079941,0.019793 0.2106397,0.033778 0.2905806,0.031036 l 0.1454424,-0.00487 c 0.082155,-0.041703 0.086651,-0.1376836 0,-0.1849979 L 2.9324005,3.8764702 C 2.6735155,3.8370204 2.566309,3.8029082 2.3883605,3.7027305 2.001387,3.4848816 1.7241328,3.0126317 1.7241328,2.571444 c 0,-0.1944262 0.073614,-0.307996 0.245244,-0.379124 0.1240132,-0.051397 0.1257948,-0.051397 0.2498081,0 0.1569467,0.065044 0.2324955,0.1738999 0.2519378,0.362389 0.035703,0.3459234 0.275754,0.5735543 0.6048946,0.5735543 0.2641505,0 0.4864932,-0.1714155 0.5653389,-0.4357187 C 3.7185256,2.433881 3.614929,1.9994275 3.3973294,1.6689706 3.1089478,1.231024 2.6315917,0.97558087 2.1209043,0.96670957 Z M 2.1038653,1.467847 C 1.9393912,1.469927 1.7702509,1.500277 1.6316338,1.55426 1.4179008,1.6589368 1.2142384,1.8679848 1.1088932,2.0903889 c -0.080161,0.1692257 -0.084942,0.1955804 -0.084892,0.482881 5.92e-5,0.3534651 0.042834,0.5412359 0.1950389,0.858658 0.1311514,0.2735118 0.3128557,0.5120597 0.5148296,0.6754857 0.1750666,0.1416547 0.1936641,0.1485292 0.2665431,0.095237 C 2.0750228,4.1480986 2.0334088,4.0544172 1.8826592,3.9388461 1.7192077,3.8135375 1.5426682,3.5868717 1.4235109,3.3491661 1.2277869,2.9587294 1.1784777,2.4761826 1.3060615,2.1999274 1.3986575,1.999432 1.5398506,1.8498751 1.7198727,1.7614702 c 0.2162894,-0.106216 0.5322217,-0.106216 0.7485111,0 0.2581558,0.1267738 0.4232202,0.3576114 0.481664,0.6742687 0.034884,0.1890172 0.087691,0.2518453 0.1682628,0.1999074 C 3.1556449,2.6115803 3.1637745,2.5714773 3.1603,2.4275235 3.1518595,2.077587 2.9066819,1.7262422 2.5484076,1.5503049 2.4281395,1.4917849 2.2683395,1.4657665 2.1038653,1.467847 Z m -0.00121,0.9563296 c -0.019077,-3.894e-4 -0.040715,0.00597 -0.06481,0.018865 -0.050592,0.027084 -0.054648,0.046176 -0.042294,0.1923005 0.039078,0.462342 0.3870067,0.8602592 0.8385759,0.9587637 0.200287,0.043677 0.2540187,0.042648 0.302143,-0.00548 C 3.2323859,3.4925068 3.1681027,3.4160001 2.9686137,3.388717 2.5608719,3.33296 2.2579244,3.021912 2.2094495,2.6094781 2.1949909,2.4864652 2.159882,2.4253339 2.1026497,2.4241766 Z"
     id="path20"
     inkscape:connector-curvature="0"
     inkscape:label="#" />
</svg>
